X: 7
T: HOP JIG: Cucanandy
T: Dance to Your Daddy / She Didn't Dance and Dance
C: C: Trad.; S: Various
C: Set Leaders: Olya, Tania, Anton
Z: Anton Zille ed., Oleg Naumov arr.; Bregolas at The Session
N: https://thesession.org/members/26966/sets/92388
R: Hop Jig
M: 3/4
L: 1/8
Q: 1/4=146
K: Gmaj
"G"B2 BA GA|"G"Bd dB "D"d2|"G"B2 BA GA|"C"Be ed "D"e2|
"G"B2 BA GA|"G"Bd dB "D/F#"d2|"Em"eB BA GA|"C"Be ed "D"e2||
"Em"ef gf gA|"D"Bd dB d2|"C"ef gf gA|"D"Be ed e2|
"Em"ef gf gA|"D"Bd dB d2|"C"eB BA GA|"D"Be ed ed||

